img/partners/img-13.svg

<svg width="69" height="89" viewBox="0 0 69 89" fill="none" xmlns="http://www.w3.org/2000/svg">
<g clip-path="url(#clip0_400_5206)">
<path fill-rule="evenodd" clip-rule="evenodd" d="M65.6898 0H66.0241C64.6232 1.02187 63.0999 1.85362 61.6683 2.83034C55.1936 7.14595 49.1167 12.1436 44.0287 18.0609C40.8337 21.8181 38.0107 25.9602 36.1648 30.5705C34.1823 35.3614 33.4524 40.7084 34.3 45.8415C34.5567 47.5335 35.0982 49.1685 35.5338 50.8083C27.6808 43.3098 19.8389 35.8003 12.0079 28.2796C9.50748 25.8366 6.92228 23.4816 4.47363 20.9935C24.4301 14.1493 44.4407 7.44776 64.4089 0.641638C64.856 0.471302 65.285 0.256357 65.6898 0Z" fill="#2AABE8"/>
<path fill-rule="evenodd" clip-rule="evenodd" d="M57.037 54.7507C58.4826 54.5986 60.0389 54.513 61.381 55.1856C63.6083 56.205 65.2234 58.5696 65.1481 61.0696C65.1953 62.0608 65.0135 63.0496 64.6172 63.9577C64.2208 64.8659 63.6207 65.6686 62.8643 66.3025C60.2532 68.5649 55.8833 68.2964 53.63 65.6395C51.2873 63.1656 51.4875 58.8928 53.8867 56.5259C54.7475 55.6367 55.8463 55.0198 57.0487 54.7507H57.037ZM57.5079 55.9389C56.6851 56.1225 55.9161 56.4974 55.2621 57.0337C54.6082 57.57 54.0872 58.253 53.7407 59.0283C53.2416 60.0739 53.2133 61.2764 53.3711 62.4052C53.5308 63.1202 53.8339 63.7947 54.2616 64.387C54.6893 64.9794 55.2327 65.4771 55.8582 65.8496C56.4836 66.222 57.178 66.4613 57.8986 66.5526C58.6191 66.644 59.3506 66.5855 60.0479 66.3808C60.7452 66.1761 61.3937 65.8295 61.9533 65.3623C62.5128 64.8951 62.9718 64.3172 63.3018 63.6643C63.6318 63.0114 63.8259 62.2972 63.8721 61.5657C63.9183 60.8341 63.8157 60.1008 63.5706 59.4109C62.7771 56.9489 60.0106 55.3709 57.5102 55.9294L57.5079 55.9389ZM4.86904 54.8956L6.06275 54.9194C6.06275 59.1257 6.04627 63.3344 6.06275 67.5407L4.85962 67.5763C4.81488 63.351 4.80782 59.1209 4.85962 54.8956H4.86904ZM9.02467 54.9336C10.4115 54.8861 11.8006 54.8932 13.1897 54.9146C14.1315 54.9265 15.1086 55.1523 15.8244 55.7797C17.3783 57.0938 17.2088 59.9289 15.4877 61.0221C14.6566 61.5497 13.6559 61.5782 12.7141 61.8063C14.0632 63.774 15.6807 65.5468 16.9851 67.5478C16.4977 67.5692 16.0104 67.5739 15.523 67.5763C14.0962 65.7417 12.7141 63.8667 11.2708 62.0487C11.066 61.6994 10.6469 61.7588 10.3055 61.6946C10.2278 63.6385 10.2725 65.5872 10.2867 67.5312C9.86617 67.5775 9.44168 67.5727 9.02232 67.5169C9.05999 63.3248 9.05999 59.132 9.02232 54.9384L9.02467 54.9336ZM10.2961 56.1219C10.2513 57.5287 10.2396 58.9403 10.2961 60.3496C11.6499 60.4113 13.0673 60.5872 14.3787 60.1713C15.8314 59.5653 15.9774 57.3196 14.633 56.5116C13.2745 55.8771 11.7323 56.1456 10.2867 56.1219H10.2961ZM24.3687 55.0097L24.6725 54.898C26.177 57.8662 27.4837 60.9389 28.9246 63.9427C29.452 65.1523 30.0877 66.3192 30.5139 67.5668C30.0877 67.5549 29.6427 67.6452 29.2283 67.5074C28.5008 66.1813 27.9475 64.7626 27.2718 63.408C25.4683 63.3249 23.6624 63.3843 21.8565 63.3724C21.1101 64.7531 20.5686 66.2241 19.7964 67.6048C19.3702 67.5858 18.944 67.5692 18.5155 67.5454C19.0123 66.2289 19.6574 64.9765 20.2461 63.7003C21.6446 60.8153 22.9466 57.8804 24.3687 55.0097ZM24.543 57.6879C23.7801 59.1708 23.1091 60.6965 22.398 62.2032C23.8107 62.1842 25.2234 62.2032 26.6361 62.1842C26.0436 60.6389 25.3466 59.1367 24.55 57.6879H24.543ZM32.6094 54.8956C34.9756 54.9194 37.3442 54.8624 39.7128 54.9289C39.7128 55.2996 39.7128 55.6727 39.7128 56.0434C37.7492 56.1433 35.7808 56.0625 33.8148 56.091C33.7725 57.4194 33.7536 58.7478 33.829 60.0763C35.7785 60.1072 37.735 59.9812 39.6822 60.1476C39.6822 60.5088 39.6822 60.8605 39.6822 61.2336C37.728 61.2882 35.7714 61.2146 33.8196 61.274C33.7607 62.9066 33.7795 64.5416 33.8078 66.1766C35.7455 66.2479 37.6832 66.1766 39.621 66.2098C39.6492 66.6329 39.6751 67.0559 39.701 67.4812C37.3465 67.6832 34.9662 67.543 32.5999 67.5549C32.5529 63.3367 32.5411 59.1138 32.5999 54.8956H32.6094ZM41.9542 54.917C43.3528 54.8932 44.7537 54.8837 46.1523 54.917C47.1341 54.9289 48.1865 55.1784 48.8952 55.9104C50.3079 57.215 50.1313 59.7958 48.5797 60.9009C47.7321 61.533 46.6349 61.5425 45.646 61.7802C46.9928 63.7597 48.6221 65.5278 49.9406 67.5288C49.4556 67.5525 48.9729 67.5644 48.4879 67.5715C47.047 65.7464 45.6625 63.8833 44.2216 62.0511C44.0285 61.678 43.5953 61.7398 43.2492 61.6732C43.1762 63.6172 43.2139 65.5635 43.2351 67.5074C42.807 67.5485 42.3767 67.5589 41.9472 67.5383C41.9731 63.3296 41.959 59.1209 41.9472 54.9123L41.9542 54.917ZM43.2421 56.1052C43.195 57.5311 43.1856 58.9451 43.2421 60.3614C44.603 60.3852 46.0275 60.5991 47.3389 60.1523C48.7657 59.5606 48.8999 57.3006 47.5744 56.5164C46.2252 55.8533 44.6713 56.1504 43.2257 56.1052H43.2421ZM62.6476 77.4718C63.4081 75.8083 65.6567 75.3164 67.1706 76.1956C67.8387 76.5815 68.3835 77.1521 68.741 77.8401C68.4255 78.0469 68.11 78.2536 67.7992 78.4556C67.1753 77.8782 66.5914 77.063 65.6802 77.0298C65.3118 76.9681 64.9336 77.0315 64.6047 77.2099C64.2758 77.3884 64.0148 77.6719 63.8626 78.016C63.4623 78.8834 64.0368 79.8268 64.7007 80.3758C66.1958 81.6781 68.2325 82.6596 68.8776 84.6819C69.5133 86.6377 67.9217 88.7884 65.9463 88.9595C64.098 89.2399 62.1791 87.9281 61.7082 86.1078C62.052 86.0484 62.4287 85.6943 62.7677 85.8701C63.3163 86.4215 63.6977 87.1772 64.43 87.517C65.692 88.2109 67.5332 87.2461 67.6321 85.7774C67.705 85.1215 67.3707 84.5084 66.9657 84.0236C65.8427 82.6881 64.2087 81.9134 63.095 80.5659C62.3745 79.7318 62.2874 78.4699 62.6688 77.4765L62.6476 77.4718ZM5.76844 76.4214C5.77677 76.3377 5.81597 76.2603 5.87826 76.2044C5.94054 76.1486 6.02136 76.1184 6.10467 76.1199C6.18797 76.1214 6.26768 76.1544 6.32795 76.2125C6.38823 76.2705 6.42467 76.3494 6.43005 76.4333C8.27831 80.5184 10.2608 84.5464 12.0243 88.6696L10.7929 88.7218C10.0041 87.3697 9.47908 85.8844 8.72565 84.5156C6.99277 84.5156 5.25517 84.4561 3.52464 84.5369C2.58285 85.7679 2.15198 87.3459 1.39149 88.7028C0.920596 88.7028 0.46383 88.7028 0 88.6862C1.91183 84.5908 3.83464 80.5025 5.76844 76.4214ZM4.00259 83.3178H8.21003C7.54842 81.8397 6.88917 80.3568 6.10749 78.9381C5.3086 80.3513 4.60079 81.815 3.98847 83.3202L4.00259 83.3178ZM13.7713 76.1125C14.2186 76.0863 14.6683 76.0649 15.1157 76.0483C15.1581 80.2704 15.1581 84.495 15.1157 88.7218C14.6683 88.6981 14.221 88.6601 13.7736 88.6078C13.8254 84.4443 13.8254 80.2792 13.7736 76.1125H13.7713ZM18.0752 76.0768C19.5821 76.0578 21.089 76.0198 22.5935 76.1125C23.4574 76.1312 24.2887 76.4492 24.9479 77.0131C26.3959 78.275 26.2759 80.8653 24.7596 82.0227C23.8978 82.7356 22.7324 82.7808 21.6729 82.8592C23.0644 84.8435 24.6984 86.6472 26.0333 88.6743C25.4588 88.6387 24.6772 88.9524 24.2981 88.3511C23.1562 86.892 22.0331 85.4186 20.91 83.9428C20.5003 83.4343 20.1213 82.6905 19.3514 82.8425C19.3349 84.796 19.3726 86.747 19.3349 88.7005L18.0823 88.6886C18.0384 84.4839 18.0384 80.2799 18.0823 76.0768H18.0752ZM19.3514 77.2959C19.3325 78.7218 19.3396 80.1477 19.3514 81.5735C20.7476 81.5735 22.2285 81.8302 23.5588 81.2836C25.0021 80.5707 24.9715 78.1728 23.4528 77.5716C22.1391 77.1225 20.7193 77.3744 19.3561 77.3031L19.3514 77.2959ZM28.6468 76.0459L29.8523 76.0768C29.89 79.8554 29.7416 83.6386 29.93 87.4124C31.5263 87.5907 33.1344 87.4505 34.7354 87.5194C34.7354 87.8853 34.7354 88.2537 34.7354 88.622C32.7106 88.8027 30.6693 88.6862 28.6374 88.6862C28.5974 84.4752 28.5903 80.2594 28.6374 76.0459H28.6468ZM36.3671 76.1125C36.816 76.084 37.2657 76.061 37.7162 76.0435C37.7602 80.2689 37.7602 84.4942 37.7162 88.7195C37.2657 88.6957 36.8168 88.6569 36.3694 88.603C36.4228 84.4395 36.4228 80.276 36.3694 76.1125H36.3671ZM40.6734 75.9818C41.4057 76.545 41.9566 77.2959 42.557 77.9851C44.1988 79.8863 45.847 81.7874 47.5014 83.6886C48.0335 84.3183 48.5373 84.9861 49.2107 85.4756C49.3261 82.3387 49.2343 79.1971 49.2578 76.0602C49.6792 76.0602 50.1007 76.0602 50.5245 76.0768C50.4868 80.2807 50.5245 84.4847 50.5033 88.6862C50.2477 88.5876 50.0134 88.4399 49.8135 88.2513C47.1835 85.2808 44.6689 82.2009 41.959 79.3064C41.9024 82.4314 41.9754 85.5612 41.9236 88.6862C41.4928 88.6862 41.0619 88.6862 40.631 88.6862C40.6122 84.449 40.5345 80.2047 40.6711 75.9723L40.6734 75.9818ZM53.6018 76.0578C55.9963 76.0578 58.3908 76.0293 60.7853 76.0792V77.2674C58.8146 77.3649 56.8392 77.2841 54.8661 77.3102C54.7614 78.6095 54.7614 79.9153 54.8661 81.2147C56.8086 81.2622 58.7534 81.1291 60.6911 81.2883C60.6911 81.6591 60.6911 82.0345 60.6911 82.4076C58.7534 82.4766 56.8062 82.315 54.8732 82.5241C54.7673 84.155 54.7673 85.7911 54.8732 87.4219C56.8062 87.6121 58.751 87.4528 60.6887 87.5241C60.6887 87.8996 60.6887 88.2775 60.7029 88.6577C58.3484 88.7813 55.9798 88.71 53.6183 88.6957C53.5633 84.4831 53.5578 80.2712 53.6018 76.0602V76.0578Z" fill="black"/>
</g>
<defs>
<clipPath id="clip0_400_5206">
<rect width="69" height="89" fill="white"/>
</clipPath>
</defs>
</svg>

<svg width="69" height="89" fill="none" xmlns="http://www.w3.org/2000/svg"><g clip-path="url(#clip0_400_5206)" fill-rule="evenodd" clip-rule="evenodd"><path d="M65.69 0h.334c-1.4 1.022-2.924 1.854-4.356 2.83-6.474 4.316-12.551 9.314-17.64 15.23-3.194 3.758-6.017 7.9-7.863 12.51-1.983 4.791-2.713 10.138-1.865 15.272.257 1.691.798 3.327 1.234 4.966A11317.5 11317.5 0 0112.008 28.28c-2.5-2.443-5.086-4.798-7.534-7.287C24.43 14.15 44.44 7.449 64.409.643c.447-.17.876-.386 1.28-.642z" fill="#2AABE8"/><path d="M57.037 54.75c1.446-.151 3.002-.237 4.344.436 2.227 1.019 3.842 3.384 3.767 5.884a6.455 6.455 0 01-.53 2.888 6.397 6.397 0 01-1.754 2.344c-2.61 2.263-6.98 1.994-9.234-.663-2.343-2.473-2.143-6.746.257-9.113a6.324 6.324 0 013.162-1.775h-.012zm.47 1.189a5.395 5.395 0 00-2.245 1.095 5.46 5.46 0 00-1.521 1.994c-.5 1.046-.528 2.248-.37 3.377.16.715.463 1.39.89 1.982a5.34 5.34 0 001.597 1.463 5.287 5.287 0 004.19.53 5.305 5.305 0 001.905-1.018 5.364 5.364 0 001.349-1.698 5.409 5.409 0 00.269-4.253c-.794-2.462-3.56-4.04-6.06-3.482l-.003.01zM4.87 54.896l1.194.023c0 4.207-.017 8.415 0 12.622l-1.203.035a555.229 555.229 0 010-12.68h.009zm4.156.038a83.929 83.929 0 014.165-.02c.942.012 1.919.238 2.634.866 1.554 1.314 1.385 4.149-.336 5.242-.831.528-1.832.556-2.774.784 1.35 1.968 2.967 3.74 4.271 5.742a37.53 37.53 0 01-1.462.028c-1.427-1.834-2.809-3.71-4.252-5.527-.205-.35-.624-.29-.966-.354-.077 1.944-.032 3.892-.018 5.836a5.25 5.25 0 01-1.265-.014 694.01 694.01 0 000-12.579l.003-.004zm1.271 1.188a58.833 58.833 0 000 4.228c1.354.061 2.771.237 4.083-.179 1.452-.606 1.598-2.851.254-3.66-1.358-.634-2.9-.365-4.346-.39h.01zM24.37 55.01l.303-.112c1.505 2.968 2.812 6.04 4.253 9.045.527 1.21 1.163 2.376 1.589 3.624-.426-.012-.871.078-1.286-.06-.727-1.326-1.28-2.744-1.956-4.099-1.804-.083-3.61-.024-5.415-.036-.747 1.381-1.288 2.852-2.06 4.233-.427-.02-.853-.036-1.282-.06.497-1.316 1.142-2.569 1.731-3.845 1.399-2.885 2.7-5.82 4.123-8.69zm.174 2.678c-.763 1.483-1.434 3.008-2.145 4.515 1.413-.019 2.825 0 4.238-.019a36.318 36.318 0 00-2.086-4.496h-.007zm8.066-2.792c2.367.023 4.735-.034 7.104.033v1.114c-1.964.1-3.932.02-5.898.048-.042 1.328-.061 2.657.014 3.985 1.95.031 3.906-.095 5.853.072v1.086c-1.954.054-3.91-.02-5.862.04-.06 1.633-.04 3.268-.012 4.903 1.938.07 3.875 0 5.813.033.028.423.054.846.08 1.271-2.355.202-4.735.062-7.101.074a504.928 504.928 0 010-12.66h.01zm9.345.021c1.399-.024 2.8-.033 4.198 0 .982.012 2.035.261 2.743.993 1.413 1.305 1.236 3.886-.315 4.99-.848.633-1.945.642-2.934.88 1.347 1.98 2.976 3.748 4.295 5.749a46.98 46.98 0 01-1.453.043c-1.441-1.826-2.825-3.689-4.266-5.52-.194-.374-.627-.312-.973-.379-.073 1.944-.035 3.89-.014 5.834a8.975 8.975 0 01-1.288.031c.026-4.208.012-8.417 0-12.626l.007.005zm1.288 1.188a58.305 58.305 0 000 4.256c1.361.024 2.786.238 4.097-.209 1.427-.591 1.56-2.851.235-3.636-1.349-.663-2.903-.366-4.348-.41h.016zm19.406 21.367c.76-1.664 3.009-2.156 4.523-1.276a4.06 4.06 0 011.57 1.644c-.316.207-.631.414-.942.616-.624-.578-1.208-1.393-2.119-1.426a1.675 1.675 0 00-1.075.18 1.69 1.69 0 00-.742.806c-.4.867.174 1.81.838 2.36 1.495 1.302 3.532 2.284 4.177 4.306.635 1.956-.956 4.106-2.932 4.278-1.848.28-3.767-1.032-4.238-2.852.344-.06.72-.414 1.06-.238.548.551.93 1.307 1.662 1.647 1.262.694 3.103-.27 3.202-1.74.073-.656-.261-1.269-.666-1.753-1.123-1.336-2.757-2.11-3.871-3.458-.72-.834-.808-2.096-.426-3.09l-.021-.004zm-56.88-1.05a.336.336 0 01.337-.302.336.336 0 01.325.313c1.848 4.085 3.83 8.113 5.594 12.237l-1.231.052c-.789-1.352-1.314-2.838-2.067-4.206-1.733 0-3.47-.06-5.201.02-.942 1.232-1.373 2.81-2.134 4.167-.47 0-.927 0-1.391-.017a2358.13 2358.13 0 015.768-12.265zm-1.765 6.896H8.21c-.662-1.478-1.32-2.961-2.103-4.38a38.006 38.006 0 00-2.119 4.382l.015-.002zm9.768-7.206a67.23 67.23 0 011.345-.064c.042 4.222.042 8.447 0 12.674a21.226 21.226 0 01-1.342-.114c.051-4.164.051-8.329 0-12.496h-.003zm4.304-.035c1.507-.02 3.014-.057 4.518.035a3.746 3.746 0 012.355.901c1.448 1.262 1.328 3.852-.188 5.01-.862.713-2.028.758-3.087.836 1.391 1.985 3.025 3.788 4.36 5.815-.574-.035-1.356.278-1.735-.323a410.81 410.81 0 01-3.388-4.408c-.41-.509-.789-1.252-1.559-1.1-.016 1.953.022 3.904-.016 5.858l-1.253-.012a603.88 603.88 0 010-12.612h-.007zm1.276 1.219a198.68 198.68 0 000 4.277c1.397 0 2.878.257 4.208-.29 1.443-.712 1.412-3.11-.106-3.711-1.314-.45-2.734-.198-4.097-.269l-.005-.007zm9.296-1.25l1.205.03c.038 3.78-.11 7.563.078 11.336 1.596.179 3.204.038 4.805.107v1.103c-2.024.18-4.066.064-6.098.064a612.16 612.16 0 010-12.64h.01zm7.72.066c.449-.028.899-.051 1.35-.069a622.81 622.81 0 010 12.676c-.451-.023-.9-.062-1.348-.116a486.95 486.95 0 000-12.49h-.002zm4.306-.13c.733.563 1.284 1.314 1.884 2.003a2257.6 2257.6 0 004.944 5.704c.532.63 1.036 1.297 1.71 1.787.115-3.137.023-6.279.047-9.416.421 0 .843 0 1.267.017-.038 4.204 0 8.408-.022 12.61a2.114 2.114 0 01-.69-.436c-2.63-2.97-5.144-6.05-7.854-8.945-.057 3.125.016 6.255-.035 9.38H40.63c-.019-4.237-.096-8.481.04-12.714l.002.01zm12.929.076c2.394 0 4.789-.029 7.183.021v1.188c-1.97.098-3.946.017-5.919.043a24.307 24.307 0 000 3.905c1.943.047 3.887-.086 5.825.073v1.12c-1.938.069-3.885-.093-5.818.116a37.793 37.793 0 000 4.898c1.933.19 3.878.03 5.816.102 0 .376 0 .754.014 1.134-2.355.123-4.723.052-7.085.038-.055-4.213-.06-8.425-.016-12.636v-.002z" fill="#000"/></g><defs><clipPath id="clip0_400_5206"><path fill="#fff" d="M0 0h69v89H0z"/></clipPath></defs></svg>
